X: 1864
T: Arklow Half Arch
R: march
M: 
K: Dmajor
M: 3/4
|:D>E|F2 FA GE|F>E D2 FA|B2 Bd A>F|E4 D>E|
F2 FA GE|F>E D2 FA|G>E DB A>F|D4:|
|:FA|B2 BG dB|A>G F3 A|G2 GE BA|F>G A3 A|
B2 BG dB|A>G F3 A|G>F EB A>F|D4:|

